svgs/light/projector.svg

<svg xmlns="http://www.w3.org/2000/svg" viewBox="0 0 640 512"><!-- Font Awesome Pro 6.0.0-alpha2 by @fontawesome - https://fontawesome.com License - https://fontawesome.com/license (Commercial License) --><path d="M308.688 123.312C311.812 126.438 315.906 128 320 128S328.188 126.438 331.312 123.312C337.562 117.062 337.562 106.937 331.312 100.688L267.312 36.688C261.062 30.438 250.937 30.438 244.688 36.688S238.438 53.063 244.688 59.312L308.688 123.312ZM416 128C424.844 128 432 120.844 432 112V16C432 7.156 424.844 0 416 0S400 7.156 400 16V112C400 120.844 407.156 128 416 128ZM240 416H64C46.326 416 32 401.672 32 384V256C32 238.326 46.326 224 64 224H240C248.836 224 256 216.836 256 208C256 199.162 248.836 192 240 192H64C28.654 192 0 220.652 0 256V384C0 407.629 12.951 428.037 32 439.123V496C32 504.836 39.164 512 48 512S64 504.836 64 496V448H240C248.836 448 256 440.836 256 432C256 423.162 248.836 416 240 416ZM512 128C516.094 128 520.188 126.438 523.312 123.312L587.312 59.312C593.562 53.062 593.562 42.937 587.312 36.688S570.937 30.438 564.688 36.688L500.688 100.688C494.438 106.938 494.438 117.063 500.688 123.312C503.812 126.438 507.906 128 512 128ZM595.711 195.092C585.988 191.947 576 199.258 576 209.477C576 216.645 580.156 223.463 586.895 225.902C599.205 230.357 608 242.15 608 255.998V384C608 395.693 601.727 405.924 592.359 411.506C582.42 417.432 576 427.809 576 439.381V495.141C576 503.111 581.445 510.5 589.312 511.781C599.336 513.412 608 505.717 608 496V439.123C627.049 428.037 640 407.629 640 384V255.998C640 227.529 621.412 203.402 595.711 195.092ZM416 160C327.635 160 256 231.635 256 320S327.635 480 416 480S576 408.365 576 320S504.365 160 416 160ZM416 448C345.42 448 288 390.578 288 320C288 249.42 345.42 192 416 192S544 249.42 544 320C544 390.578 486.58 448 416 448ZM168 320C168 333.254 178.746 344 192 344C205.256 344 216 333.254 216 320C216 306.744 205.256 296 192 296C178.746 296 168 306.744 168 320ZM72 320C72 333.254 82.746 344 96 344C109.256 344 120 333.254 120 320C120 306.744 109.256 296 96 296C82.746 296 72 306.744 72 320Z"/></svg>

<svg xmlns="http://www.w3.org/2000/svg" viewBox="0 0 640 512"><!--! Font Awesome Pro 6.3.0 by @fontawesome - https://fontawesome.com License - https://fontawesome.com/license (Commercial License) Copyright 2023 Fonticons, Inc. --><path d="M308.7 123.3C311.8 126.4 315.9 128 320 128s8.188-1.562 11.31-4.688c6.25-6.25 6.25-16.38 0-22.62l-64-64c-6.25-6.25-16.38-6.25-22.62 0s-6.25 16.38 0 22.62L308.7 123.3zM416 128c8.844 0 16-7.156 16-16v-96C432 7.156 424.8 0 416 0s-16 7.156-16 16v96C400 120.8 407.2 128 416 128zM240 416H64c-17.67 0-32-14.33-32-32V256c0-17.67 14.33-32 32-32h176C248.8 224 256 216.8 256 208C256 199.2 248.8 192 240 192H64C28.65 192 0 220.7 0 256v128c0 23.63 12.95 44.04 32 55.12V496C32 504.8 39.16 512 48 512S64 504.8 64 496V448h176C248.8 448 256 440.8 256 432C256 423.2 248.8 416 240 416zM512 128c4.094 0 8.188-1.562 11.31-4.688l64-64c6.25-6.25 6.25-16.38 0-22.62s-16.38-6.25-22.62 0l-64 64c-6.25 6.25-6.25 16.38 0 22.62C503.8 126.4 507.9 128 512 128zM595.7 195.1C585.1 191.9 576 199.3 576 209.5c0 7.168 4.156 13.99 10.89 16.43C599.2 230.4 608 242.2 608 255.1V384c0 11.69-6.273 21.92-15.64 27.51C582.4 417.4 576 427.8 576 439.4v55.76c0 7.971 5.445 15.36 13.31 16.64C599.3 513.4 608 505.7 608 496v-56.88C627 428 640 407.6 640 384V255.1C640 227.5 621.4 203.4 595.7 195.1zM416 160c-88.37 0-160 71.63-160 160s71.63 160 160 160s160-71.63 160-160S504.4 160 416 160zM416 448c-70.58 0-128-57.42-128-128c0-70.58 57.42-128 128-128s128 57.42 128 128C544 390.6 486.6 448 416 448zM168 320c0 13.25 10.75 24 24 24c13.26 0 24-10.75 24-24c0-13.26-10.74-24-24-24C178.7 296 168 306.7 168 320zM72 320c0 13.25 10.75 24 24 24c13.26 0 24-10.75 24-24c0-13.26-10.74-24-24-24C82.75 296 72 306.7 72 320z"/></svg>
